X:155
T:Wakefield Hunt THO4.155
M:6/8
L:1/8
Z:vmp. Peter Dunk 2010/11.from a transcription by Fynn Titford-Mock 2007
B:Thompson's Compleat Collection of 200 Favourite Country Dances Volume IV.
Q:3/8=110
K:A
e3 c2 d|ecA F2 E|FGA E2 c|d2 c B2 A|\
e3 c2 d|ecA F2 E|FGA E2 c|cdB A3:|
|:ecA fdB|ecA F2 E|FGA E2 c|d2 c B2 A|\
ecA fdB|ecA F2 E|FGA E2 c|cdB A3:|
|:[E2C2][EC][F2D2][FD]|[E2C2]c d2 c|Bdf ecA|G2 A B3|\
[E2C2][EC][F2D2][FD]|[E2C2]c d2 c|Bdf efd|cdB A3:|
